src/icons/SponsorPro.svg

<svg width="18" height="19" viewBox="0 0 18 19" fill="none" xmlns="http://www.w3.org/2000/svg">
    <path d="M3.65819 2.91846H14.3489C14.5888 2.91846 14.8143 3.03327 14.9554 3.22732L17.8225 7.16962C17.9278 7.31428 17.9161 7.51311 17.7949 7.64454L9.27907 16.8699C9.1386 17.0221 8.90137 17.0316 8.7492 16.8911C8.74185 16.8843 8.7348 16.8773 8.72797 16.8699L0.212244 7.64454C0.0909197 7.51311 0.0793127 7.31428 0.18452 7.16962L3.05165 3.22732C3.19278 3.03327 3.41824 2.91846 3.65819 2.91846Z" fill="currentColor"/>
</svg>

<svg width="18" height="19" fill="none" xmlns="http://www.w3.org/2000/svg"><path d="M3.658 2.918h10.69a.75.75 0 0 1 .607.31l2.868 3.942a.375.375 0 0 1-.028.475L9.279 16.87a.375.375 0 0 1-.551 0L.212 7.645a.375.375 0 0 1-.027-.475l2.867-3.943a.75.75 0 0 1 .606-.309Z" fill="currentColor"/></svg>
